X: 7164
T: Churchill's Folly
R: jig
M: 6/8
K: Gdorian
A|:BAG AGF|GDD D2A|BAG AGF|cAB cAF|
BAG AGF|GDD D2D|FDG FDC|1 =B,G,G, G,2A:|2 =B,G,G, G,2B/c/||
|:d2g gdc|Bdg gdc|Bcc dcc|fcc dcd|
~g3 gdc|Bdg gdA|BAG AGF|1 ~G3 GAB/c/:|2 ~G3 G2A||

